X:0443
T:Wantoness for ever mair.
M:C
L:1/8
Q:1/4=80 "Slow"
I: :: ::
Z:Jack Campin * www.campin.me.uk * 2009
K:E Dorian
   f2 fe d2 (d/e/f)|{f}e2 d2 TB4     | d2  c>B  A2  d2 | AFdB AFED|
{g}f2 ed d2 (d/e/f)|{f}e2 d2 TB3 d/e/|(fe)(dB) (dB)(AF)|TB4   E4 :|
   E2 FA B2  B2    |  TB2 A2 TB4     | D2 EF    A3   B | AFdB AFED|
   E2 FA B2  B2    |  TB2 A2 TB3 d/e/| fedB     dBAF   |TB4   E4 :|
<end>
<start>
